svgs/sharp-light/ethernet.svg

<svg xmlns="http://www.w3.org/2000/svg" viewBox="0 0 512 512"><!--! Font Awesome Pro 6.6.0 by @fontawesome - https://fontawesome.com License - https://fontawesome.com/license (Commercial License) Copyright 2024 Fonticons, Inc. --><path d="M128 64l16 0 224 0 16 0 0 16 0 48 48 0 16 0 0 16 0 48 48 0 16 0 0 16 0 224 0 16-16 0-96 0-96 0-96 0-96 0-96 0L0 448l0-16L0 208l0-16 16 0 48 0 0-48 0-16 16 0 48 0 0-48 0-16zm32 32l0 48 0 16-16 0-48 0 0 48 0 16-16 0-48 0 0 192 64 0 0-80 0-16 32 0 0 16 0 80 64 0 0-80 0-16 32 0 0 16 0 80 64 0 0-80 0-16 32 0 0 16 0 80 64 0 0-80 0-16 32 0 0 16 0 80 64 0 0-192-48 0-16 0 0-16 0-48-48 0-16 0 0-16 0-48L160 96z"/></svg>

<svg xmlns="http://www.w3.org/2000/svg" viewBox="0 0 512 512"><!--! Font Awesome Pro 6.4.2 by @fontawesome - https://fontawesome.com License - https://fontawesome.com/license (Commercial License) Copyright 2023 Fonticons, Inc. --><path d="M128 64h16H368h16V80v48h48 16v16 48h48 16v16V432v16H496 400 304 208 112 16 0V432 208 192H16 64V144 128H80h48V80 64zm32 32v48 16H144 96v48 16H80 32V416H96V336 320h32v16 80h64V336 320h32v16 80h64V336 320h32v16 80h64V336 320h32v16 80h64V224H432 416V208 160H368 352V144 96H160z"/></svg>
